static/images/app/google-play-badge.svg

<svg width="251" height="80" viewBox="0 0 251 80" fill="none" xmlns="http://www.w3.org/2000/svg">
<rect x="1.74582" y="1" width="247.754" height="78" rx="7" fill="black" stroke="#A6A6A6" stroke-width="2"/>
<path d="M132.158 27.8099C130.489 27.8099 129.082 27.2161 127.97 26.0471C126.866 24.9109 126.25 23.3445 126.278 21.7454C126.278 20.0387 126.848 18.5939 127.97 17.4483C129.078 16.2794 130.485 15.6855 132.154 15.6855C133.804 15.6855 135.211 16.2794 136.342 17.4483C137.464 18.6313 138.034 20.0761 138.034 21.7454C138.016 23.4567 137.446 24.9016 136.342 26.0425C135.234 27.2208 133.827 27.8099 132.158 27.8099ZM82.4991 27.8099C80.8669 27.8099 79.4509 27.2254 78.2922 26.0705C77.1428 24.9203 76.5589 23.4661 76.5589 21.7501C76.5589 20.0341 77.1428 18.5799 78.2922 17.4296C79.4279 16.2747 80.8439 15.6902 82.4991 15.6902C83.3083 15.6902 84.0945 15.8539 84.8485 16.1859C85.5887 16.5085 86.191 16.948 86.637 17.4857L86.7473 17.6213L85.5014 18.8651L85.3726 18.7108C84.6692 17.8598 83.7267 17.4437 82.4807 17.4437C81.3681 17.4437 80.398 17.8458 79.598 18.6407C78.7934 19.4402 78.3842 20.4876 78.3842 21.7547C78.3842 23.0219 78.7934 24.0693 79.598 24.8688C80.398 25.6637 81.3681 26.0658 82.4807 26.0658C83.6669 26.0658 84.6646 25.6637 85.4416 24.8688C85.9014 24.4013 86.1864 23.7466 86.2876 22.919H82.2922V21.1703H88.0025L88.0255 21.3293C88.0669 21.6238 88.1082 21.9278 88.1082 22.2083C88.1082 23.8215 87.6301 25.126 86.683 26.0892C85.6071 27.2301 84.2002 27.8099 82.4991 27.8099ZM148.526 27.5621H146.765L141.372 18.7856L141.418 20.366V27.5574H139.657V15.938H141.666L141.721 16.0269L146.793 24.2937L146.747 22.718V15.938H148.526V27.5621ZM118.926 27.5621H117.142V17.6868H114.048V15.938H122.016V17.6868H118.922V27.5621H118.926ZM112.595 27.5621H110.816V15.938H112.595V27.5621ZM102.595 27.5621H100.816V17.6868H97.7219V15.938H105.69V17.6868H102.595V27.5621ZM96.5955 27.5434H89.7726V15.938H96.5955V17.6868H91.5565V20.8757H96.1035V22.6057H91.5565V25.7946H96.5955V27.5434ZM129.276 24.8455C130.071 25.6544 131.037 26.0612 132.158 26.0612C133.312 26.0612 134.255 25.6637 135.041 24.8455C135.823 24.0506 136.218 23.0079 136.218 21.7501C136.218 20.4923 135.823 19.4449 135.046 18.6547C134.25 17.8458 133.28 17.439 132.163 17.439C131.009 17.439 130.066 17.8364 129.285 18.6547C128.503 19.4496 128.108 20.4923 128.108 21.7501C128.108 23.0079 128.499 24.0552 129.276 24.8455Z" fill="white"/>
<path fill-rule="evenodd" clip-rule="evenodd" d="M126.112 43.7915C121.768 43.7915 118.246 47.1441 118.246 51.7685C118.246 56.3508 121.791 59.7454 126.112 59.7454C130.457 59.7454 133.979 56.3695 133.979 51.7685C133.979 47.1441 130.457 43.7915 126.112 43.7915ZM126.112 56.5846C123.735 56.5846 121.689 54.5833 121.689 51.7498C121.689 48.8741 123.74 46.915 126.112 46.915C128.489 46.915 130.535 48.8741 130.535 51.7498C130.54 54.602 128.489 56.5846 126.112 56.5846ZM108.949 43.7915C104.605 43.7915 101.083 47.1441 101.083 51.7685C101.083 56.3508 104.628 59.7454 108.949 59.7454C113.294 59.7454 116.816 56.3695 116.816 51.7685C116.816 47.1441 113.29 43.7915 108.949 43.7915ZM108.949 56.5846C106.572 56.5846 104.526 54.5833 104.526 51.7498C104.526 48.8741 106.577 46.915 108.949 46.915C111.326 46.915 113.372 48.8741 113.372 51.7498C113.372 54.602 111.326 56.5846 108.949 56.5846ZM88.5266 46.2276V49.6036H96.4943C96.2507 51.4973 95.6346 52.8953 94.6921 53.8539C93.5243 55.0415 91.722 56.3321 88.545 56.3321C83.6485 56.3321 79.8187 52.3109 79.8187 47.3311C79.8187 42.3514 83.6485 38.3302 88.545 38.3302C91.1887 38.3302 93.1151 39.3916 94.5449 40.7476L96.8989 38.3536C94.9128 36.4178 92.2691 34.9355 88.5634 34.9355C81.8462 34.9355 76.2095 40.4998 76.2095 47.3124C76.2095 54.1438 81.8416 59.6893 88.5634 59.6893C92.1909 59.6893 94.9128 58.4829 97.0645 56.2105C99.2575 53.9801 99.9518 50.8333 99.9518 48.2943C99.9518 47.5041 99.892 46.7934 99.7679 46.1902H88.522C88.5266 46.1855 88.5266 46.2276 88.5266 46.2276ZM172.061 48.8554C171.404 47.0646 169.418 43.7728 165.344 43.7728C161.307 43.7728 157.951 47.0038 157.951 51.7498C157.951 56.2292 161.271 59.7267 165.735 59.7267C169.321 59.7267 171.408 57.4963 172.268 56.1871L169.606 54.3729C168.723 55.7055 167.496 56.5799 165.753 56.5799C163.992 56.5799 162.76 55.7663 161.942 54.1625L172.429 49.7438C172.429 49.7485 172.061 48.8554 172.061 48.8554ZM161.367 51.5206C161.284 48.4393 163.721 46.8729 165.464 46.8729C166.838 46.8729 167.983 47.5602 168.374 48.5609L161.367 51.5206ZM152.848 59.2498H156.291V35.8146H152.848V59.2498ZM147.193 45.5637H147.068C146.291 44.6238 144.816 43.7728 142.931 43.7728C139.018 43.7728 135.413 47.275 135.413 51.7731C135.413 56.2526 139 59.7127 142.931 59.7127C144.793 59.7127 146.291 58.857 147.068 57.8985H147.193V59.044C147.193 62.088 145.593 63.7292 143.013 63.7292C140.903 63.7292 139.593 62.1862 139.059 60.8956L136.066 62.1675C136.926 64.2716 139.22 66.876 143.009 66.876C147.046 66.876 150.466 64.4586 150.466 58.5624V44.2498H147.211V45.5637C147.216 45.5637 147.193 45.5637 147.193 45.5637ZM143.239 56.5846C140.862 56.5846 138.875 54.5646 138.875 51.7731C138.875 48.9583 140.862 46.9196 143.239 46.9196C145.593 46.9196 147.418 48.9817 147.418 51.7731C147.441 54.5646 145.597 56.5846 143.239 56.5846ZM188.185 35.8146H179.951V59.2498H183.395V50.3751H188.19C192.001 50.3751 195.748 47.5649 195.748 43.1042C195.748 38.6435 192.015 35.8146 188.185 35.8146ZM188.286 47.102H183.39V39.0596H188.286C190.866 39.0596 192.323 41.2245 192.323 43.0808C192.323 44.9184 190.847 47.102 188.286 47.102ZM209.551 43.7495C207.049 43.7495 204.47 44.8763 203.404 47.3311L206.456 48.6216C207.114 47.3311 208.318 46.8916 209.592 46.8916C211.376 46.8916 213.178 47.9764 213.219 49.9122V50.16C212.603 49.8046 211.252 49.2622 209.633 49.2622C206.337 49.2622 202.994 51.0951 202.994 54.5319C202.994 57.6787 205.698 59.6986 208.709 59.6986C211.022 59.6986 212.295 58.6372 213.091 57.4075H213.215V59.2217H216.534V50.2442C216.534 46.064 213.482 43.7495 209.551 43.7495ZM209.118 56.5846C207.992 56.5846 206.415 56.0235 206.415 54.5833C206.415 52.7691 208.383 52.0817 210.061 52.0817C211.578 52.0817 212.295 52.4137 213.197 52.872C212.948 54.9761 211.201 56.5658 209.118 56.5846ZM228.645 44.2498L224.691 54.415H224.566L220.47 44.2498H216.764L222.911 58.4595L219.408 66.357H222.994L232.451 44.2498H228.645ZM197.647 59.2498H201.091V35.8146H197.647V59.2498Z" fill="white"/>
<path fill-rule="evenodd" clip-rule="evenodd" d="M19.7366 17.1253C19.2033 17.7097 18.8952 18.6028 18.8952 19.7718V61.2322C18.8952 62.4011 19.2033 63.2942 19.755 63.8553L19.8975 63.9816L42.7386 40.7521V40.2331L19.8791 16.999L19.7366 17.1253Z" fill="url(#paint0_linear)"/>
<path fill-rule="evenodd" clip-rule="evenodd" d="M50.3385 48.519L42.7202 40.7712V40.2288L50.3385 32.481L50.5041 32.5838L59.5154 37.7927C62.0947 39.2702 62.0947 41.711 59.5154 43.2073L50.5041 48.4161L50.3385 48.519Z" fill="url(#paint1_linear)"/>
<path fill-rule="evenodd" clip-rule="evenodd" d="M50.504 48.4161L42.7202 40.5L19.7366 63.8744C20.5779 64.7908 21.9894 64.8937 23.5664 64.0006L50.504 48.4161Z" fill="url(#paint2_linear)"/>
<path fill-rule="evenodd" clip-rule="evenodd" d="M50.504 32.5836L23.5664 17.0225C21.9894 16.106 20.5733 16.2323 19.7366 17.1487L42.7202 40.4997L50.504 32.5836Z" fill="url(#paint3_linear)"/>
<path opacity="0.2" fill-rule="evenodd" clip-rule="evenodd" d="M50.3385 48.248L23.5848 63.7063C22.0906 64.5807 20.7572 64.5199 19.8975 63.725L19.755 63.8699L19.8975 63.9962C20.7572 64.7864 22.0906 64.8518 23.5848 63.9775L50.5224 48.4164L50.3385 48.248Z" fill="black"/>
<path opacity="0.12" fill-rule="evenodd" clip-rule="evenodd" d="M59.5155 42.9361L50.3156 48.2478L50.4811 48.4161L59.4925 43.2073C60.7844 42.4592 61.4189 41.4772 61.4189 40.5C61.3407 41.3978 60.6833 42.2488 59.5155 42.9361Z" fill="black"/>
<path opacity="0.25" fill-rule="evenodd" clip-rule="evenodd" d="M23.5664 17.294L59.5154 38.064C60.6833 38.7326 61.3407 39.607 61.4419 40.5001C61.4419 39.5228 60.8074 38.5409 59.5154 37.7928L23.5664 17.0228C20.9871 15.5219 18.8952 16.775 18.8952 19.7722V20.0434C18.8952 17.0415 20.9871 15.8118 23.5664 17.294Z" fill="white"/>
<defs>
<linearGradient id="paint0_linear" x1="40.69" y1="19.3254" x2="4.02187" y2="28.9323" gradientUnits="userSpaceOnUse">
<stop stop-color="#00A0FF"/>
<stop offset="0.00657" stop-color="#00A1FF"/>
<stop offset="0.2601" stop-color="#00BEFF"/>
<stop offset="0.5122" stop-color="#00D2FF"/>
<stop offset="0.7604" stop-color="#00DFFF"/>
<stop offset="1" stop-color="#00E3FF"/>
</linearGradient>
<linearGradient id="paint1_linear" x1="62.8791" y1="40.5" x2="18.2683" y2="40.5" gradientUnits="userSpaceOnUse">
<stop stop-color="#FFE000"/>
<stop offset="0.4087" stop-color="#FFBD00"/>
<stop offset="0.7754" stop-color="#FFA500"/>
<stop offset="1" stop-color="#FF9C00"/>
</linearGradient>
<linearGradient id="paint2_linear" x1="46.2694" y1="44.8064" x2="16.1595" y2="94.6369" gradientUnits="userSpaceOnUse">
<stop stop-color="#FF3A44"/>
<stop offset="1" stop-color="#C31162"/>
</linearGradient>
<linearGradient id="paint3_linear" x1="13.9494" y1="3.33484" x2="27.3826" y2="25.5902" gradientUnits="userSpaceOnUse">
<stop stop-color="#32A071"/>
<stop offset="0.0685" stop-color="#2DA771"/>
<stop offset="0.4762" stop-color="#15CF74"/>
<stop offset="0.8009" stop-color="#06E775"/>
<stop offset="1" stop-color="#00F076"/>
</linearGradient>
</defs>
</svg>

<?xml version="1.0" encoding="utf-8"?>
<!-- Generator: Adobe Illustrator 27.8.0, SVG Export Plug-In . SVG Version: 6.00 Build 0)  -->
<svg version="1.1" id="Layer_1" xmlns="http://www.w3.org/2000/svg" xmlns:xlink="http://www.w3.org/1999/xlink" x="0px" y="0px"
	 viewBox="0 0 251 80" style="enable-background:new 0 0 251 80;" xml:space="preserve">
<style type="text/css">
	.st0{stroke:#A6A6A6;stroke-width:2;}
	.st1{fill:#FFFFFF;}
	.st2{fill-rule:evenodd;clip-rule:evenodd;fill:#FFFFFF;}
	.st3{fill-rule:evenodd;clip-rule:evenodd;fill:url(#SVGID_1_);}
	.st4{fill-rule:evenodd;clip-rule:evenodd;fill:url(#SVGID_00000142169668709359097580000002197944826413947823_);}
	.st5{fill-rule:evenodd;clip-rule:evenodd;fill:url(#SVGID_00000007395372848075545200000012941119851363352478_);}
	.st6{fill-rule:evenodd;clip-rule:evenodd;fill:url(#SVGID_00000167385772415900703450000008541096004947536802_);}
	.st7{opacity:0.2;fill-rule:evenodd;clip-rule:evenodd;enable-background:new    ;}
	.st8{opacity:0.12;fill-rule:evenodd;clip-rule:evenodd;enable-background:new    ;}
	.st9{opacity:0.25;fill-rule:evenodd;clip-rule:evenodd;fill:#FFFFFF;enable-background:new    ;}
</style>
<path class="st0" d="M8.7,1h233.8c3.9,0,7,3.1,7,7v64c0,3.9-3.1,7-7,7H8.7c-3.9,0-7-3.1-7-7V8C1.7,4.1,4.9,1,8.7,1z"/>
<path class="st1" d="M132.2,27.8c-1.7,0-3.1-0.6-4.2-1.8c-1.1-1.1-1.7-2.7-1.7-4.3c0-1.7,0.6-3.2,1.7-4.3c1.1-1.2,2.5-1.8,4.2-1.8
	c1.6,0,3.1,0.6,4.2,1.8c1.1,1.2,1.7,2.6,1.7,4.3c0,1.7-0.6,3.2-1.7,4.3C135.2,27.2,133.8,27.8,132.2,27.8z M82.5,27.8
	c-1.6,0-3-0.6-4.2-1.7c-1.1-1.2-1.7-2.6-1.7-4.3c0-1.7,0.6-3.2,1.7-4.3c1.1-1.2,2.6-1.7,4.2-1.7c0.8,0,1.6,0.2,2.3,0.5
	c0.7,0.3,1.3,0.8,1.8,1.3l0.1,0.1l-1.2,1.2l-0.1-0.2c-0.7-0.9-1.6-1.3-2.9-1.3c-1.1,0-2.1,0.4-2.9,1.2c-0.8,0.8-1.2,1.8-1.2,3.1
	c0,1.3,0.4,2.3,1.2,3.1c0.8,0.8,1.8,1.2,2.9,1.2c1.2,0,2.2-0.4,3-1.2c0.5-0.5,0.7-1.1,0.8-1.9h-4v-1.7H88l0,0.2
	c0,0.3,0.1,0.6,0.1,0.9c0,1.6-0.5,2.9-1.4,3.9C85.6,27.2,84.2,27.8,82.5,27.8z M148.5,27.6h-1.8l-5.4-8.8l0,1.6v7.2h-1.8V15.9h2
	l0.1,0.1l5.1,8.3l0-1.6v-6.8h1.8V27.6z M118.9,27.6h-1.8v-9.9H114v-1.7h8v1.7h-3.1L118.9,27.6L118.9,27.6z M112.6,27.6h-1.8V15.9
	h1.8V27.6z M102.6,27.6h-1.8v-9.9h-3.1v-1.7h8v1.7h-3.1V27.6z M96.6,27.5h-6.8V15.9h6.8v1.7h-5v3.2h4.5v1.7h-4.5v3.2h5V27.5z
	 M129.3,24.8c0.8,0.8,1.8,1.2,2.9,1.2c1.2,0,2.1-0.4,2.9-1.2c0.8-0.8,1.2-1.8,1.2-3.1c0-1.3-0.4-2.3-1.2-3.1
	c-0.8-0.8-1.8-1.2-2.9-1.2c-1.2,0-2.1,0.4-2.9,1.2c-0.8,0.8-1.2,1.8-1.2,3.1C128.1,23,128.5,24.1,129.3,24.8z"/>
<path class="st2" d="M126.1,43.8c-4.3,0-7.9,3.4-7.9,8c0,4.6,3.5,8,7.9,8c4.3,0,7.9-3.4,7.9-8C134,47.1,130.5,43.8,126.1,43.8z
	 M126.1,56.6c-2.4,0-4.4-2-4.4-4.8c0-2.9,2.1-4.8,4.4-4.8c2.4,0,4.4,2,4.4,4.8C130.5,54.6,128.5,56.6,126.1,56.6z M108.9,43.8
	c-4.3,0-7.9,3.4-7.9,8c0,4.6,3.5,8,7.9,8c4.3,0,7.9-3.4,7.9-8C116.8,47.1,113.3,43.8,108.9,43.8z M108.9,56.6c-2.4,0-4.4-2-4.4-4.8
	c0-2.9,2.1-4.8,4.4-4.8c2.4,0,4.4,2,4.4,4.8C113.4,54.6,111.3,56.6,108.9,56.6z M88.5,46.2v3.4h8c-0.2,1.9-0.9,3.3-1.8,4.3
	c-1.2,1.2-3,2.5-6.1,2.5c-4.9,0-8.7-4-8.7-9c0-5,3.8-9,8.7-9c2.6,0,4.6,1.1,6,2.4l2.4-2.4c-2-1.9-4.6-3.4-8.3-3.4
	c-6.7,0-12.4,5.6-12.4,12.4c0,6.8,5.6,12.4,12.4,12.4c3.6,0,6.3-1.2,8.5-3.5c2.2-2.2,2.9-5.4,2.9-7.9c0-0.8-0.1-1.5-0.2-2.1
	L88.5,46.2C88.5,46.2,88.5,46.2,88.5,46.2z M172.1,48.9c-0.7-1.8-2.6-5.1-6.7-5.1c-4,0-7.4,3.2-7.4,8c0,4.5,3.3,8,7.8,8
	c3.6,0,5.7-2.2,6.5-3.5l-2.7-1.8c-0.9,1.3-2.1,2.2-3.9,2.2c-1.8,0-3-0.8-3.8-2.4l10.5-4.4C172.4,49.7,172.1,48.9,172.1,48.9z
	 M161.4,51.5c-0.1-3.1,2.4-4.6,4.1-4.6c1.4,0,2.5,0.7,2.9,1.7L161.4,51.5z M152.8,59.2h3.4V35.8h-3.4V59.2z M147.2,45.6h-0.1
	c-0.8-0.9-2.3-1.8-4.1-1.8c-3.9,0-7.5,3.5-7.5,8c0,4.5,3.6,7.9,7.5,7.9c1.9,0,3.4-0.9,4.1-1.8h0.1V59c0,3-1.6,4.7-4.2,4.7
	c-2.1,0-3.4-1.5-4-2.8l-3,1.3c0.9,2.1,3.2,4.7,6.9,4.7c4,0,7.5-2.4,7.5-8.3V44.2h-3.3L147.2,45.6C147.2,45.6,147.2,45.6,147.2,45.6z
	 M143.2,56.6c-2.4,0-4.4-2-4.4-4.8c0-2.8,2-4.9,4.4-4.9c2.4,0,4.2,2.1,4.2,4.9C147.4,54.6,145.6,56.6,143.2,56.6z M188.2,35.8H180
	v23.4h3.4v-8.9h4.8c3.8,0,7.6-2.8,7.6-7.3S192,35.8,188.2,35.8z M188.3,47.1h-4.9v-8h4.9c2.6,0,4,2.2,4,4
	C192.3,44.9,190.8,47.1,188.3,47.1z M209.6,43.7c-2.5,0-5.1,1.1-6.1,3.6l3.1,1.3c0.7-1.3,1.9-1.7,3.1-1.7c1.8,0,3.6,1.1,3.6,3v0.2
	c-0.6-0.4-2-0.9-3.6-0.9c-3.3,0-6.6,1.8-6.6,5.3c0,3.1,2.7,5.2,5.7,5.2c2.3,0,3.6-1.1,4.4-2.3h0.1v1.8h3.3v-9
	C216.5,46.1,213.5,43.7,209.6,43.7z M209.1,56.6c-1.1,0-2.7-0.6-2.7-2c0-1.8,2-2.5,3.6-2.5c1.5,0,2.2,0.3,3.1,0.8
	C212.9,55,211.2,56.6,209.1,56.6z M228.6,44.2l-4,10.2h-0.1l-4.1-10.2h-3.7l6.1,14.2l-3.5,7.9h3.6l9.5-22.1H228.6z M197.6,59.2h3.4
	V35.8h-3.4V59.2z"/>
<linearGradient id="SVGID_1_" gradientUnits="userSpaceOnUse" x1="44.5428" y1="47.9691" x2="7.8747" y2="38.3622" gradientTransform="matrix(1 0 0 -1 0 82)">
	<stop  offset="0" style="stop-color:#00A0FF"/>
	<stop  offset="6.570000e-03" style="stop-color:#00A1FF"/>
	<stop  offset="0.2601" style="stop-color:#00BEFF"/>
	<stop  offset="0.5122" style="stop-color:#00D2FF"/>
	<stop  offset="0.7604" style="stop-color:#00DFFF"/>
	<stop  offset="1" style="stop-color:#00E3FF"/>
</linearGradient>
<path class="st3" d="M19.7,17.1c-0.5,0.6-0.8,1.5-0.8,2.6v41.5c0,1.2,0.3,2.1,0.9,2.6l0.1,0.1l22.8-23.2v-0.5L19.9,17L19.7,17.1z"/>
<linearGradient id="SVGID_00000099643368542252916370000002002855255219798707_" gradientUnits="userSpaceOnUse" x1="62.8791" y1="41.5" x2="18.2683" y2="41.5" gradientTransform="matrix(1 0 0 -1 0 82)">
	<stop  offset="0" style="stop-color:#FFE000"/>
	<stop  offset="0.4087" style="stop-color:#FFBD00"/>
	<stop  offset="0.7754" style="stop-color:#FFA500"/>
	<stop  offset="1" style="stop-color:#FF9C00"/>
</linearGradient>
<path style="fill-rule:evenodd;clip-rule:evenodd;fill:url(#SVGID_00000099643368542252916370000002002855255219798707_);" d="
	M50.3,48.5l-7.6-7.7v-0.5l7.6-7.7l0.2,0.1l9,5.2c2.6,1.5,2.6,3.9,0,5.4l-9,5.2L50.3,48.5z"/>
<linearGradient id="SVGID_00000065788506938991754410000013286991549018975650_" gradientUnits="userSpaceOnUse" x1="43.1212" y1="39.0959" x2="13.0113" y2="-10.7346" gradientTransform="matrix(1 0 0 -1 0 82)">
	<stop  offset="0" style="stop-color:#FF3A44"/>
	<stop  offset="1" style="stop-color:#C31162"/>
</linearGradient>
<path style="fill-rule:evenodd;clip-rule:evenodd;fill:url(#SVGID_00000065788506938991754410000013286991549018975650_);" d="
	M50.5,48.4l-7.8-7.9l-23,23.4c0.8,0.9,2.3,1,3.8,0.1L50.5,48.4z"/>
<linearGradient id="SVGID_00000015316387819807137920000012609857580047072160_" gradientUnits="userSpaceOnUse" x1="19.9412" y1="82.2818" x2="33.3744" y2="60.0264" gradientTransform="matrix(1 0 0 -1 0 82)">
	<stop  offset="0" style="stop-color:#32A071"/>
	<stop  offset="6.850000e-02" style="stop-color:#2DA771"/>
	<stop  offset="0.4762" style="stop-color:#15CF74"/>
	<stop  offset="0.8009" style="stop-color:#06E775"/>
	<stop  offset="1" style="stop-color:#00F076"/>
</linearGradient>
<path style="fill-rule:evenodd;clip-rule:evenodd;fill:url(#SVGID_00000015316387819807137920000012609857580047072160_);" d="
	M50.5,32.6L23.6,17c-1.6-0.9-3-0.8-3.8,0.1l23,23.4L50.5,32.6z"/>
<path class="st7" d="M50.3,48.2L23.6,63.7c-1.5,0.9-2.8,0.8-3.7,0l-0.1,0.1l0.1,0.1c0.9,0.8,2.2,0.9,3.7,0l26.9-15.6L50.3,48.2z"/>
<path class="st8" d="M59.5,42.9l-9.2,5.3l0.2,0.2l9-5.2c1.3-0.7,1.9-1.7,1.9-2.7C61.3,41.4,60.7,42.2,59.5,42.9z"/>
<path class="st9" d="M23.6,17.3l35.9,20.8c1.2,0.7,1.8,1.5,1.9,2.4c0-1-0.6-2-1.9-2.7L23.6,17c-2.6-1.5-4.7-0.2-4.7,2.7V20
	C18.9,17,21,15.8,23.6,17.3z"/>
</svg>
